static/fa/svgs/regular/calendar-check.svg

<svg xmlns="http://www.w3.org/2000/svg" viewBox="0 0 448 512"><!--! Font Awesome Free 6.1.1 by @fontawesome - https://fontawesome.com License - https://fontawesome.com/license/free (Icons: CC BY 4.0, Fonts: SIL OFL 1.1, Code: MIT License) Copyright 2022 Fonticons, Inc.--><path d="M216.1 408.1c-8.5 10.2-23.7 10.2-33.1 0l-64-64c-9.3-8.5-9.3-23.7 0-33.1 9.4-9.3 24.6-9.3 33.1 0l47.9 47.1 95-95.1c9.4-9.3 24.6-9.3 33.1 0 10.2 9.4 10.2 24.6 0 33.1l-112 112zM128 0c13.3 0 24 10.75 24 24v40h144V24c0-13.25 10.7-24 24-24s24 10.75 24 24v40h40c35.3 0 64 28.65 64 64v320c0 35.3-28.7 64-64 64H64c-35.35 0-64-28.7-64-64V128c0-35.35 28.65-64 64-64h40V24c0-13.25 10.7-24 24-24zm272 192H48v256c0 8.8 7.16 16 16 16h320c8.8 0 16-7.2 16-16V192z"/></svg>

<svg xmlns="http://www.w3.org/2000/svg" viewBox="0 0 448 512"><!--! Font Awesome Free 6.1.1 by @fontawesome - https://fontawesome.com License - https://fontawesome.com/license/free (Icons: CC BY 4.0, Fonts: SIL OFL 1.1, Code: MIT License) Copyright 2022 Fonticons, Inc. --><path d="M216.1 408.1C207.6 418.3 192.4 418.3 183 408.1L119 344.1C109.7 335.6 109.7 320.4 119 311C128.4 301.7 143.6 301.7 152.1 311L200 358.1L295 263C304.4 253.7 319.6 253.7 328.1 263C338.3 272.4 338.3 287.6 328.1 296.1L216.1 408.1zM128 0C141.3 0 152 10.75 152 24V64H296V24C296 10.75 306.7 0 320 0C333.3 0 344 10.75 344 24V64H384C419.3 64 448 92.65 448 128V448C448 483.3 419.3 512 384 512H64C28.65 512 0 483.3 0 448V128C0 92.65 28.65 64 64 64H104V24C104 10.75 114.7 0 128 0zM400 192H48V448C48 456.8 55.16 464 64 464H384C392.8 464 400 456.8 400 448V192z"/></svg>
